X:28
T:Scottische valse
R:Scottische valse
N:
D:Voir Maluzerne
O:France
Z: Eric Forgeot - http://anamnese.online.fr -- http://anamnese.fr.st
M:C
L:1/8
Q:1/4=130
K:C
V:1
%%MIDI channel 1
%%MIDI program 20 % reed organ
%%MIDI transpose 0
A2 cA B2 Bc | de dB c2 A2 | 
A2 cA B2 Bc | de dB A4 |
V:2
z8 | z8 |
z8 | z8 |
%
V:1
M:3/4
Q:1/4=90
Bce cd2 ded BcA | Bce cd2 ded BA2 |
V:2
%%MIDI channel 1
%%MIDI program 20 % reed organ
%%MIDI transpose 0
B,C2 CD2 DE2 EA2 | B,C2 CD2 DE2 EA2 |

